Numix-Light/16/status/indicator-keyboard-Eo-2.svg

<?xml version="1.0" encoding="UTF-8" standalone="no"?>
<svg
   xmlns:dc="http://purl.org/dc/elements/1.1/"
   xmlns:cc="http://creativecommons.org/ns#"
   xmlns:rdf="http://www.w3.org/1999/02/22-rdf-syntax-ns#"
   xmlns:svg="http://www.w3.org/2000/svg"
   xmlns="http://www.w3.org/2000/svg"
   xmlns:sodipodi="http://sodipodi.sourceforge.net/DTD/sodipodi-0.dtd"
   xmlns:inkscape="http://www.inkscape.org/namespaces/inkscape"
   viewBox="0 0 16 16"
   id="svg2"
   version="1.1"
   inkscape:version="0.91 r13725"
   sodipodi:docname="indicator-keyboard-Eo-2.svg">
  <metadata
     id="metadata14">
    <rdf:RDF>
      <cc:Work
         rdf:about="">
        <dc:format>image/svg+xml</dc:format>
        <dc:type
           rdf:resource="http://purl.org/dc/dcmitype/StillImage" />
      </cc:Work>
    </rdf:RDF>
  </metadata>
  <defs
     id="defs12" />
  <sodipodi:namedview
     pagecolor="#ffffff"
     bordercolor="#666666"
     borderopacity="1"
     objecttolerance="10"
     gridtolerance="10"
     guidetolerance="10"
     inkscape:pageopacity="0"
     inkscape:pageshadow="2"
     inkscape:window-width="640"
     inkscape:window-height="480"
     id="namedview10"
     showgrid="false"
     inkscape:zoom="14.75"
     inkscape:cx="8"
     inkscape:cy="8"
     inkscape:window-x="65"
     inkscape:window-y="24"
     inkscape:window-maximized="0"
     inkscape:current-layer="svg2" />
  <path
     style="fill:#353535;fill-opacity:1"
     d="M 1.5996094 0 C 0.71320937 2.9605947e-16 0 0.71320937 0 1.5996094 L 0 14.400391 C 2.9605947e-16 15.286791 0.71320937 16 1.5996094 16 L 14.400391 16 C 15.286791 16 16 15.286791 16 14.400391 L 16 1.5996094 C 16 0.71320937 15.286791 0 14.400391 0 L 1.5996094 0 z M 1.9296875 4.859375 L 5.5292969 4.859375 L 5.5292969 5.390625 L 2.5410156 5.390625 L 2.5410156 7.5585938 L 5.2050781 7.5585938 L 5.2050781 8.0800781 L 2.5410156 8.0800781 L 2.5410156 10.564453 L 5.7636719 10.564453 L 5.7636719 11.095703 L 1.9296875 11.095703 L 1.9296875 4.859375 z M 8.6425781 6.3359375 C 8.9545781 6.3359375 9.2400469 6.395625 9.4980469 6.515625 C 9.7560469 6.629625 9.9780624 6.7937656 10.164062 7.0097656 C 10.356063 7.2197656 10.503469 7.4753906 10.605469 7.7753906 C 10.713469 8.0753906 10.767578 8.4074375 10.767578 8.7734375 C 10.767578 9.1394375 10.713469 9.4734375 10.605469 9.7734375 C 10.503469 10.073438 10.356063 10.327109 10.164062 10.537109 C 9.9780624 10.747109 9.7560469 10.913203 9.4980469 11.033203 C 9.2400469 11.147203 8.9545781 11.203125 8.6425781 11.203125 C 8.3305781 11.203125 8.0451094 11.147203 7.7871094 11.033203 C 7.5291094 10.913203 7.3052813 10.747109 7.1132812 10.537109 C 6.9272813 10.327109 6.779875 10.073438 6.671875 9.7734375 C 6.569875 9.4734375 6.5195313 9.1394375 6.5195312 8.7734375 C 6.5195312 8.4074375 6.569875 8.0753906 6.671875 7.7753906 C 6.779875 7.4753906 6.9272813 7.2197656 7.1132812 7.0097656 C 7.3052813 6.7937656 7.5291094 6.629625 7.7871094 6.515625 C 8.0451094 6.395625 8.3305781 6.3359375 8.6425781 6.3359375 z M 8.6425781 6.8652344 C 8.1805781 6.8652344 7.8149219 7.0406719 7.5449219 7.3886719 C 7.2749219 7.7306719 7.140625 8.1914375 7.140625 8.7734375 C 7.140625 9.3554375 7.2749219 9.818156 7.5449219 10.160156 C 7.8149219 10.502156 8.1805781 10.673828 8.6425781 10.673828 C 9.1045781 10.673828 9.4702344 10.502156 9.7402344 10.160156 C 10.010234 9.8181561 10.146484 9.3554375 10.146484 8.7734375 C 10.146484 8.1914375 10.010234 7.7306719 9.7402344 7.3886719 C 9.4702344 7.0406719 9.1045781 6.8652344 8.6425781 6.8652344 z M 12.742188 8.7539062 C 13.136087 8.7539062 13.431959 8.851875 13.630859 9.046875 C 13.829759 9.237975 13.929687 9.5044563 13.929688 9.8476562 C 13.929688 9.9997563 13.902256 10.14475 13.847656 10.28125 C 13.793056 10.41385 13.7186 10.543169 13.625 10.667969 C 13.5353 10.792769 13.433406 10.912297 13.316406 11.029297 C 13.199406 11.146297 13.079884 11.263859 12.958984 11.380859 C 12.857584 11.478359 12.757656 11.578288 12.660156 11.679688 C 12.566556 11.777188 12.480344 11.877116 12.402344 11.978516 C 12.328244 12.076016 12.269456 12.172031 12.222656 12.269531 C 12.179756 12.363131 12.158203 12.457181 12.158203 12.550781 L 12.158203 12.5625 L 14.070312 12.5625 L 14.070312 12.896484 L 11.736328 12.896484 C 11.736328 12.888684 11.734335 12.874969 11.730469 12.855469 L 11.730469 12.755859 C 11.730469 12.572559 11.763778 12.402094 11.830078 12.246094 C 11.896378 12.086194 11.980631 11.937275 12.082031 11.796875 C 12.187331 11.656475 12.300981 11.525197 12.425781 11.404297 C 12.554481 11.283397 12.677922 11.165834 12.794922 11.052734 C 12.892422 10.959134 12.984513 10.869003 13.070312 10.783203 C 13.160012 10.693503 13.238388 10.603366 13.304688 10.509766 C 13.370987 10.416166 13.423891 10.316237 13.462891 10.210938 C 13.501891 10.105638 13.519531 9.9900344 13.519531 9.8652344 C 13.519531 9.5922344 13.447028 9.39825 13.298828 9.28125 C 13.154528 9.16035 12.970347 9.0996094 12.748047 9.0996094 C 12.623247 9.0996094 12.511562 9.1152844 12.414062 9.1464844 C 12.316563 9.1776844 12.232303 9.2149125 12.158203 9.2578125 C 12.088003 9.2968125 12.027263 9.3379594 11.976562 9.3808594 C 11.925863 9.4237594 11.888634 9.4570688 11.865234 9.4804688 L 11.666016 9.2167969 C 11.689416 9.1894969 11.730562 9.1503094 11.789062 9.0996094 C 11.851462 9.0450094 11.927878 8.9921062 12.017578 8.9414062 C 12.111178 8.8907063 12.216991 8.8476 12.337891 8.8125 C 12.458791 8.7735 12.593988 8.7539063 12.742188 8.7539062 z "
     id="path4" />
</svg>

<svg xmlns="http://www.w3.org/2000/svg" viewBox="0 0 16 16">
 <path d="m 1.6 0 c -0.886 0 -1.6 0.713 -1.6 1.6 l 0 12.801 c 0 0.886 0.713 1.6 1.6 1.6 l 12.801 0 c 0.886 0 1.6 -0.713 1.6 -1.6 l 0 -12.801 c 0 -0.886 -0.713 -1.6 -1.6 -1.6 l -12.801 0 z m 0.33 4.859 l 3.6 0 l 0 0.531 l -2.988 0 l 0 2.168 l 2.664 0 l 0 0.521 l -2.664 0 l 0 2.484 l 3.223 0 l 0 0.531 l -3.834 0 l 0 -6.236 z m 6.713 1.477 c 0.312 0 0.597 0.06 0.855 0.18 c 0.258 0.114 0.48 0.278 0.666 0.494 c 0.192 0.21 0.339 0.466 0.441 0.766 c 0.108 0.3 0.162 0.632 0.162 0.998 c 0 0.366 -0.054 0.7 -0.162 1 c -0.102 0.3 -0.249 0.554 -0.441 0.764 c -0.186 0.21 -0.408 0.376 -0.666 0.496 c -0.258 0.114 -0.543 0.17 -0.855 0.17 c -0.312 0 -0.597 -0.056 -0.855 -0.17 c -0.258 -0.12 -0.482 -0.286 -0.674 -0.496 c -0.186 -0.21 -0.333 -0.464 -0.441 -0.764 c -0.102 -0.3 -0.152 -0.634 -0.152 -1 c 0 -0.366 0.05 -0.698 0.152 -0.998 c 0.108 -0.3 0.255 -0.556 0.441 -0.766 c 0.192 -0.216 0.416 -0.38 0.674 -0.494 c 0.258 -0.12 0.543 -0.18 0.855 -0.18 z m 0 0.529 c -0.462 0 -0.828 0.175 -1.098 0.523 c -0.27 0.342 -0.404 0.803 -0.404 1.385 c 0 0.582 0.134 1.045 0.404 1.387 c 0.27 0.342 0.636 0.514 1.098 0.514 c 0.462 0 0.828 -0.172 1.098 -0.514 c 0.27 -0.342 0.406 -0.805 0.406 -1.387 c 0 -0.582 -0.136 -1.043 -0.406 -1.385 c -0.27 -0.348 -0.636 -0.523 -1.098 -0.523 z m 4.1 1.889 c 0.394 0 0.69 0.098 0.889 0.293 c 0.199 0.191 0.299 0.458 0.299 0.801 c 0 0.152 -0.027 0.297 -0.082 0.434 c -0.055 0.133 -0.129 0.262 -0.223 0.387 c -0.09 0.125 -0.192 0.244 -0.309 0.361 c -0.117 0.117 -0.237 0.235 -0.357 0.352 c -0.101 0.098 -0.201 0.197 -0.299 0.299 c -0.094 0.098 -0.18 0.197 -0.258 0.299 c -0.074 0.097 -0.133 0.194 -0.18 0.291 c -0.043 0.094 -0.064 0.188 -0.064 0.281 l 0 0.012 l 1.912 0 l 0 0.334 l -2.334 0 c 0 -0.008 -0.002 -0.022 -0.006 -0.041 l 0 -0.1 c 0 -0.183 0.033 -0.354 0.1 -0.51 c 0.066 -0.16 0.151 -0.309 0.252 -0.449 c 0.105 -0.14 0.219 -0.272 0.344 -0.393 c 0.129 -0.121 0.252 -0.238 0.369 -0.352 c 0.098 -0.094 0.19 -0.184 0.275 -0.27 c 0.09 -0.09 0.168 -0.18 0.234 -0.273 c 0.066 -0.094 0.119 -0.194 0.158 -0.299 c 0.039 -0.105 0.057 -0.221 0.057 -0.346 c 0 -0.273 -0.073 -0.467 -0.221 -0.584 c -0.144 -0.121 -0.328 -0.182 -0.551 -0.182 c -0.125 0 -0.236 0.016 -0.334 0.047 c -0.097 0.031 -0.182 0.068 -0.256 0.111 c -0.07 0.039 -0.131 0.08 -0.182 0.123 c -0.051 0.043 -0.088 0.076 -0.111 0.1 l -0.199 -0.264 c 0.023 -0.027 0.065 -0.066 0.123 -0.117 c 0.062 -0.055 0.139 -0.108 0.229 -0.158 c 0.094 -0.051 0.199 -0.094 0.32 -0.129 c 0.121 -0.039 0.256 -0.059 0.404 -0.059 z" style="fill:#353535;fill-opacity:1"/>
</svg>
